cloudphone-mobile/media/svg/media-tv.svg

<svg xmlns="http://www.w3.org/2000/svg" xmlns:xlink="http://www.w3.org/1999/xlink" preserveAspectRatio="xMidYMid" width="156" height="112" viewBox="0 0 156 112">
  <defs>
    <style>
      .cls-1 {
        stroke: #c0c9d3;
        stroke-linecap: round;
        stroke-width: 2px;
        fill: none;
        fill-rule: evenodd;
      }
    </style>
  </defs>
  <g>
    <path d="M3.000,2.000 L153.000,2.000 C153.552,2.000 154.000,2.448 154.000,3.000 L154.000,97.000 C154.000,97.552 153.552,98.000 153.000,98.000 L3.000,98.000 C2.448,98.000 2.000,97.552 2.000,97.000 L2.000,3.000 C2.000,2.448 2.448,2.000 3.000,2.000 Z" class="cls-1"/>
    <circle cx="78" cy="86" r="3" class="cls-1"/>
    <path d="M10.000,2.000 L10.000,86.000 " class="cls-1"/>
    <path d="M146.000,2.000 L146.000,86.000 " class="cls-1"/>
    <path d="M154.000,86.000 L86.000,86.000 " class="cls-1"/>
    <path d="M70.000,86.000 L2.000,86.000 " class="cls-1"/>
    <path d="M32.000,98.000 L32.000,110.000 " class="cls-1"/>
    <path d="M40.000,98.000 L40.000,110.000 " class="cls-1"/>
    <path d="M114.000,98.000 L114.000,110.000 " class="cls-1"/>
    <path d="M122.000,98.000 L122.000,110.000 " class="cls-1"/>
    <path d="M130.000,110.000 L24.000,110.000 " class="cls-1"/>
  </g>
</svg>

<svg xmlns="http://www.w3.org/2000/svg" preserveAspectRatio="xMidYMid" width="156" height="112" viewBox="0 0 156 112"><defs><style>.cls-1{stroke:#c0c9d3;stroke-linecap:round;stroke-width:2px;fill:none;fill-rule:evenodd}</style></defs><path d="M3 2h150a1 1 0 0 1 1 1v94a1 1 0 0 1-1 1H3a1 1 0 0 1-1-1V3a1 1 0 0 1 1-1z" class="cls-1"/><circle cx="78" cy="86" r="3" class="cls-1"/><path d="M10 2v84M146 2v84M154 86H86M70 86H2M32 98v12M40 98v12M114 98v12M122 98v12M130 110H24" class="cls-1"/></svg>
